resources/svg/edge-fill.svg

<svg fill="currentColor" viewBox="0 0 24 24" xmlns="http://www.w3.org/2000/svg"><path d="M20.645 8.586C20.475 7.875 20.204 7.138 19.871 6.565C19.1 5.236 18.407 4.328 16.694 3.245C14.981 2.162 13.077 2 12.171 2C9.75598 2 7.95998 2.86 6.64598 3.887C3.34498 6.47 3.00098 11 3.00098 11C3.00098 11 4.22198 8.955 6.54098 7.474C7.94398 6.579 9.94198 6 11.569 6C15.886 6 16.001 10 16.001 10H9.00098C9.00098 8 10.001 7 10.001 7C10.001 7 5.00098 9 5.00098 14.044C5.00098 14.531 4.99798 15.416 5.24898 16.327C5.48098 17.17 5.94898 18.032 6.38098 18.68C7.60198 20.512 9.42598 21.294 10.297 21.584C11.293 21.916 12.326 22 13.307 22C16.027 22 18.184 21.114 19.001 20.725V16.553C18.243 17.007 16.322 18 14.001 18C9.00098 18 9.00098 14 9.00098 14H21.001V11.51C21.001 11.51 20.962 9.917 20.645 8.586Z"/></svg>

<svg xmlns="http://www.w3.org/2000/svg" viewBox="0 0 24 24" fill="currentColor">
    <g>
        <path fill="none" d="M0 0h24v24H0z"/>
        <path d="M20.644 8.586c-.17-.711-.441-1.448-.774-2.021-.771-1.329-1.464-2.237-3.177-3.32C14.98 2.162 13.076 2 12.17 2c-2.415 0-4.211.86-5.525 1.887C3.344 6.47 3 11 3 11s1.221-2.045 3.54-3.526C7.943 6.579 9.941 6 11.568 6 15.885 6 16 10 16 10H9c0-2 1-3 1-3s-5 2-5 7.044c0 .487-.003 1.372.248 2.283.232.843.7 1.705 1.132 2.353 1.221 1.832 3.045 2.614 3.916 2.904.996.332 2.029.416 3.01.416 2.72 0 4.877-.886 5.694-1.275v-4.172c-.758.454-2.679 1.447-5 1.447-5 0-5-4-5-4h12v-2.49s-.039-1.593-.356-2.924z"/>
    </g>
</svg>
